svg/fluentui-system-icons/ic_fluent_table_resize_row_16_filled.svg

<svg width="16" height="16" viewBox="0 0 16 16" fill="none" xmlns="http://www.w3.org/2000/svg">
<path d="M13.95 12C13.7184 13.1411 12.7095 14 11.5 14H4.5C3.29052 14 2.28164 13.1411 2.05001 12L6.37795 12L6.93934 12.5614C7.52513 13.1472 8.47488 13.1472 9.06066 12.5614L9.62205 12H13.95ZM14 11H10.6187C11.1458 10.411 11.1264 9.50581 10.5607 8.94007C10.2678 8.64718 9.88389 8.50073 9.5 8.50073V7.50073C9.88389 7.50073 10.2678 7.35428 10.5607 7.06139C11.1269 6.49518 11.1458 5.58894 10.6174 5L14 5V11ZM2.05001 4L6.37941 4L6.93934 3.44007C7.52513 2.85428 8.47488 2.85428 9.06066 3.44007L9.62059 4L13.95 4C13.7184 2.85888 12.7095 2 11.5 2H4.5C3.29052 2 2.28164 2.85888 2.05001 4ZM5.43934 7.06139C4.87313 6.49518 4.85421 5.58894 5.38257 5L2 5V11L5.38126 11C4.85424 10.411 4.8736 9.50581 5.43934 8.94007C5.73224 8.64718 6.11612 8.50073 6.5 8.50073V7.50073C6.11612 7.50073 5.73224 7.35428 5.43934 7.06139ZM9.85355 6.35355C9.65829 6.54882 9.34171 6.54882 9.14645 6.35355L8.5 5.70711L8.5 10.2929L9.14645 9.64645C9.34171 9.45118 9.65829 9.45118 9.85355 9.64645C10.0488 9.84171 10.0488 10.1583 9.85355 10.3536L8.35355 11.8536C8.15829 12.0488 7.84171 12.0488 7.64645 11.8536L6.14645 10.3536C5.95118 10.1583 5.95118 9.84171 6.14645 9.64645C6.34171 9.45118 6.65829 9.45118 6.85355 9.64645L7.5 10.2929L7.5 5.70711L6.85355 6.35355C6.65829 6.54882 6.34171 6.54882 6.14645 6.35355C5.95118 6.15829 5.95118 5.84171 6.14645 5.64645L7.64645 4.14645C7.84171 3.95118 8.15829 3.95118 8.35355 4.14645L9.85355 5.64645C10.0488 5.84171 10.0488 6.15829 9.85355 6.35355Z" fill="#212121"/>
</svg>

<svg xmlns="http://www.w3.org/2000/svg" width="16" height="16"><path d="M13.95 12a2.5 2.5 0 0 1-2.45 2h-7a2.5 2.5 0 0 1-2.45-2h4.328l.561.561a1.5 1.5 0 0 0 2.122 0L9.622 12h4.328Zm.05-1h-3.381A1.5 1.5 0 0 0 9.5 8.5v-1A1.5 1.5 0 0 0 10.617 5H14v6ZM2.05 4h4.33l.56-.56a1.5 1.5 0 0 1 2.12 0l.56.56h4.33a2.5 2.5 0 0 0-2.45-2h-7a2.5 2.5 0 0 0-2.45 2Zm3.39 3.061A1.5 1.5 0 0 1 5.382 5H2v6h3.381A1.5 1.5 0 0 1 6.5 8.5v-1c-.384 0-.768-.146-1.06-.439Zm4.414-.707a.5.5 0 0 1-.708 0L8.5 5.707v4.586l.646-.647a.5.5 0 1 1 .708.708l-1.5 1.5a.5.5 0 0 1-.708 0l-1.5-1.5a.5.5 0 0 1 .708-.708l.646.647V5.707l-.646.647a.5.5 0 1 1-.708-.708l1.5-1.5a.5.5 0 0 1 .708 0l1.5 1.5a.5.5 0 0 1 0 .708Z"/></svg>
